polaris-icons/icons/new-icons/Columns3Major.svg

<svg width="20" height="20" viewBox="0 0 20 20" fill="none" xmlns="http://www.w3.org/2000/svg">
<path fill-rule="evenodd" clip-rule="evenodd" d="M6 3C4.34315 3 3 4.34315 3 6V14C3 15.6569 4.34315 17 6 17H14C15.6569 17 17 15.6569 17 14V6C17 4.34315 15.6569 3 14 3H6ZM11.25 4.5H8.75V15.5H11.25V4.5ZM12.75 4.5V15.5H14C14.8284 15.5 15.5 14.8284 15.5 14V6C15.5 5.17157 14.8284 4.5 14 4.5H12.75ZM6 4.5H7.25V15.5H6C5.17157 15.5 4.5 14.8284 4.5 14V6C4.5 5.17157 5.17157 4.5 6 4.5Z" fill="#4A4A4A"/>
</svg>

<svg viewBox="0 0 20 20" xmlns="http://www.w3.org/2000/svg"><path fill-rule="evenodd" d="M6 3a3 3 0 0 0-3 3v8a3 3 0 0 0 3 3h8a3 3 0 0 0 3-3v-8a3 3 0 0 0-3-3h-8Zm5.25 1.5h-2.5v11h2.5v-11Zm1.5 0v11h1.25a1.5 1.5 0 0 0 1.5-1.5v-8a1.5 1.5 0 0 0-1.5-1.5h-1.25Zm-6.75 0h1.25v11h-1.25a1.5 1.5 0 0 1-1.5-1.5v-8a1.5 1.5 0 0 1 1.5-1.5Z" fill="#5C5F62"/></svg>
